packages/calcite-ui-icons/icons/layer-annotation-24.svg

<?xml version="1.0" encoding="UTF-8"?><svg id="icons" xmlns="http://www.w3.org/2000/svg" viewBox="0 0 24 24"><defs><style>.cls-1{fill:none;}</style></defs><path d="M16.31073,3.2c1.55057,0,2.92719.38011,3.62987.61504l2.67448,15.87149c-1.00352-.26648-2.41653-.52042-4.15746-.52042-2.73964,0-4.52463.42941-6.25084.84468-1.68709.40587-3.28061.78922-5.78307.78922-1.99864,0-3.49304-.38091-4.29985-.65024l2.72371-15.80666c.89061.21461,2.2272.45689,3.72304.45689,2.12155,0,3.25249-.46492,4.25029-.87511.94618-.38896,1.76334-.7249,3.48982-.7249M16.31073,2.2c-3.84804,0-3.89206,1.60001-7.74011,1.60001-2.48587,0-4.51978-.72203-4.51978-.72203L1,20.78305s2.03391,1.01695,5.42372,1.01695c5.24208,0,6.79182-1.6339,12.03391-1.6339,3.38983,0,5.42374,1.01694,5.42374,1.01694l-3.05086-18.10507s-2.03389-.87798-4.51978-.87798h0ZM16.72833,16.97559h1.09259l-4.80804-10.95117h-.91602l-4.80804,10.95117h1.09259l1.30634-2.97559h5.73425l1.30634,2.97559ZM10.12677,13l2.4281-5.53076,2.4281,5.53076h-4.8562Z"/><rect class="cls-1" width="24" height="24"/></svg>

<svg xmlns="http://www.w3.org/2000/svg" viewBox="0 0 24 24"><path d="M16.31 3.2c1.551 0 2.928.38 3.63.615l2.675 15.872a16.3 16.3 0 0 0-4.157-.52c-2.74 0-4.525.429-6.251.844-1.687.406-3.28.789-5.783.789-1.999 0-3.493-.38-4.3-.65L4.848 4.343c.89.215 2.227.457 3.723.457 2.121 0 3.252-.465 4.25-.875.946-.39 1.763-.725 3.49-.725m0-1c-3.848 0-3.892 1.6-7.74 1.6-2.486 0-4.52-.722-4.52-.722L1 20.783S3.034 21.8 6.424 21.8c5.242 0 6.792-1.634 12.034-1.634 3.39 0 5.423 1.017 5.423 1.017l-3.05-18.105S18.797 2.2 16.31 2.2m.417 14.776h1.093L13.013 6.024h-.916L7.289 16.976H8.38L9.688 14h5.734zM10.127 13l2.428-5.53L14.983 13z"/><path d="M0 0h24v24H0z" style="fill:none"/></svg>
